Numix-GalliumOS/scalable/status/battery-missing-symbolic.svg

<svg xmlns="http://www.w3.org/2000/svg" width="16" viewBox="0 0 16 16" height="16">
 <path d="M 5 0 L 5 2 L 2 2 L 2 16 L 14 16 L 14 2 L 11 2 L 11 0 L 5 0 z M 4.625 5 C 4.772343 5.001135 4.9075918 5.03264 5.03125 5.0625 C 5.050564 5.06434 5.074694 5.0601 5.09375 5.0625 C 5.23422 5.0835517 5.3739173 5.122606 5.5 5.1875 C 5.509156 5.19199 5.52214 5.18272 5.53125 5.1875 C 5.555405 5.200691 5.570318 5.234679 5.59375 5.25 C 5.637792 5.278796 5.646279 5.306699 5.6875 5.34375 C 5.7469605 5.3971916 5.8223156 5.4582021 5.875 5.53125 C 6.2384669 5.8682307 6.5891519 6.2102298 6.9375 6.5625 C 6.942618 6.56764 6.9636 6.55736 6.96875 6.5625 C 7.3142089 6.9072312 7.6627991 7.2716548 8 7.625 C 8.3467578 7.2711636 8.6829023 6.9147701 9.03125 6.5625 C 9.3795976 6.2102298 9.7302875 5.8682307 10.09375 5.53125 C 10.285752 5.2650259 10.54932 5.150007 10.8125 5.09375 C 10.84239 5.083327 10.87559 5.07113 10.90625 5.0625 C 10.979763 5.040389 11.07621 5.042745 11.15625 5.03125 C 11.380418 5.003124 11.611852 5.007209 11.9375 5.0625 C 11.99462 5.4699122 12.00446 5.8071359 11.9375 6.09375 C 11.9352 6.103455 11.9399 6.11541 11.9375 6.125 C 11.917055 6.2661321 11.88026 6.371585 11.8125 6.5 C 11.773235 6.5744097 11.74893 6.647887 11.6875 6.71875 C 11.632444 6.7844507 11.57747 6.843183 11.5 6.90625 L 9.375 9 L 10.4375 10.0625 C 10.790393 10.410232 11.162422 10.762177 11.5 11.125 C 11.796473 11.338066 11.89134 11.60896 11.9375 11.90625 C 11.95031 11.988784 11.96575 12.07073 11.96875 12.15625 C 11.99694 12.380032 11.9929 12.643656 11.9375 12.96875 C 11.75974 12.99362 11.619122 12.9976 11.46875 13 C 11.28918 13.00726 11.108825 12.99143 10.9375 12.96875 C 10.785048 12.949514 10.637739 12.91617 10.5 12.84375 C 10.422065 12.803636 10.35138 12.75054 10.28125 12.6875 C 10.221789 12.63406 10.14644 12.57305 10.09375 12.5 L 8 10.40625 L 5.875 12.5 C 5.8118183 12.577335 5.75332 12.63255 5.6875 12.6875 C 5.4393656 12.910519 5.161569 12.95779 4.84375 12.96875 C 4.833297 12.96995 4.823073 12.96765 4.8125 12.96875 C 4.7475463 12.97518 4.694761 12.99902 4.625 13 C 4.597717 13.000382 4.559354 13.000433 4.53125 13 C 4.3808818 12.99768 4.2090069 12.99358 4.03125 12.96875 C 4.028369 12.793892 4.00654 12.616641 4 12.4375 C 3.9991755 12.385135 3.99732 12.32998 4 12.28125 C 3.999534 12.176347 4.01947 12.070112 4.03125 11.96875 C 4.0500598 11.806951 4.081995 11.675005 4.15625 11.53125 C 4.1964345 11.453453 4.249351 11.38252 4.3125 11.3125 C 4.3660367 11.253145 4.426824 11.17759 4.5 11.125 C 4.8428625 10.767187 5.2121261 10.412614 5.5625 10.0625 C 5.9153935 9.7147683 6.2392875 9.346146 6.59375 9 L 5.5625 7.96875 C 5.2096066 7.6210176 4.8375772 7.269075 4.5 6.90625 C 4.4225276 6.8431798 4.36756 6.784455 4.3125 6.71875 C 4.1473321 6.5216481 4.060157 6.3220253 4.03125 6.09375 C 4.02224 6.0227319 4.03332 5.949747 4.03125 5.875 C 4.004483 5.6412259 3.987931 5.371508 4.03125 5.0625 C 4.2532096 5.024814 4.4554446 4.9987 4.625 5 z " opacity="0.4" fill="#bebebe"/>
</svg>

<svg xmlns="http://www.w3.org/2000/svg" viewBox="0 0 16 16">
 <path d="m 5 0 l 0 2 l -3 0 l 0 14 l 12 0 l 0 -14 l -3 0 l 0 -2 l -6 0 z m -0.375 5 c 0.147 0.001 0.283 0.033 0.406 0.063 c 0.019 0.002 0.043 -0.002 0.063 0 c 0.14 0.021 0.28 0.06 0.406 0.125 c 0.009 0.004 0.022 -0.005 0.031 0 c 0.024 0.013 0.039 0.047 0.063 0.063 c 0.044 0.029 0.053 0.057 0.094 0.094 c 0.059 0.053 0.135 0.114 0.188 0.188 c 0.363 0.337 0.714 0.679 1.063 1.031 c 0.005 0.005 0.026 -0.005 0.031 0 c 0.345 0.345 0.694 0.709 1.031 1.063 c 0.347 -0.354 0.683 -0.71 1.031 -1.063 c 0.348 -0.352 0.699 -0.694 1.063 -1.031 c 0.192 -0.266 0.456 -0.381 0.719 -0.438 c 0.03 -0.01 0.063 -0.023 0.094 -0.031 c 0.074 -0.022 0.17 -0.02 0.25 -0.031 c 0.224 -0.028 0.456 -0.024 0.781 0.031 c 0.057 0.407 0.067 0.745 0 1.031 c -0.002 0.01 0.002 0.022 0 0.031 c -0.02 0.141 -0.057 0.247 -0.125 0.375 c -0.039 0.074 -0.064 0.148 -0.125 0.219 c -0.055 0.066 -0.11 0.124 -0.188 0.188 l -2.125 2.094 l 1.063 1.063 c 0.353 0.348 0.725 0.7 1.063 1.063 c 0.296 0.213 0.391 0.484 0.438 0.781 c 0.013 0.083 0.028 0.164 0.031 0.25 c 0.028 0.224 0.024 0.487 -0.031 0.813 c -0.178 0.025 -0.318 0.029 -0.469 0.031 c -0.18 0.007 -0.36 -0.009 -0.531 -0.031 c -0.152 -0.019 -0.3 -0.053 -0.438 -0.125 c -0.078 -0.04 -0.149 -0.093 -0.219 -0.156 c -0.059 -0.053 -0.135 -0.114 -0.188 -0.188 l -2.094 -2.094 l -2.125 2.094 c -0.063 0.077 -0.122 0.133 -0.188 0.188 c -0.248 0.223 -0.526 0.27 -0.844 0.281 c -0.01 0.001 -0.021 -0.001 -0.031 0 c -0.065 0.006 -0.118 0.03 -0.188 0.031 c -0.027 0 -0.066 0 -0.094 0 c -0.15 -0.002 -0.322 -0.006 -0.5 -0.031 c -0.003 -0.175 -0.025 -0.352 -0.031 -0.531 c -0.001 -0.052 -0.003 -0.108 0 -0.156 c 0 -0.105 0.019 -0.211 0.031 -0.313 c 0.019 -0.162 0.051 -0.294 0.125 -0.438 c 0.04 -0.078 0.093 -0.149 0.156 -0.219 c 0.054 -0.059 0.114 -0.135 0.188 -0.188 c 0.343 -0.358 0.712 -0.712 1.063 -1.063 c 0.353 -0.348 0.677 -0.716 1.031 -1.063 l -1.031 -1.031 c -0.353 -0.348 -0.725 -0.7 -1.063 -1.063 c -0.077 -0.063 -0.132 -0.122 -0.188 -0.188 c -0.165 -0.197 -0.252 -0.397 -0.281 -0.625 c -0.009 -0.071 0.002 -0.144 0 -0.219 c -0.027 -0.234 -0.043 -0.503 0 -0.813 c 0.222 -0.038 0.424 -0.064 0.594 -0.063 z" style="fill:#bebebe;opacity:0.4"/>
</svg>
